img/prev.svg

<svg width="71" height="71" viewBox="0 0 71 71" fill="none" xmlns="http://www.w3.org/2000/svg">
<circle cx="35.5" cy="35.5" r="35.5" transform="rotate(-180 35.5 35.5)" fill="black" fill-opacity="0.35"/>
<path d="M27.4344 36.5535L39.5541 48.5687C39.8344 48.8468 40.2086 49 40.6076 49C41.0066 49 41.3808 48.8468 41.6611 48.5687L42.5536 47.684C43.1344 47.1076 43.1344 46.1707 42.5536 45.5952L32.3764 35.5056L42.5649 25.4048C42.8452 25.1267 43 24.756 43 24.3606C43 23.9648 42.8452 23.5941 42.5649 23.3157L41.6724 22.4313C41.3919 22.1532 41.0179 22 40.6189 22C40.2199 22 39.8457 22.1532 39.5654 22.4313L27.4344 34.4574C27.1534 34.7364 26.9991 35.1089 27 35.5049C26.9991 35.9025 27.1534 36.2748 27.4344 36.5535Z" fill="white"/>
<path d="M26 35.5049C25.9991 36.1679 26.2591 36.7961 26.7301 37.2634L26.7304 37.2637L38.8498 49.2785C38.8499 49.2786 38.85 49.2787 38.8501 49.2788C39.3198 49.7447 39.9479 50 40.6076 50C41.2672 50 41.8953 49.7448 42.365 49.2789C42.3651 49.2789 42.3651 49.2788 42.3652 49.2788C42.3653 49.2787 42.3653 49.2786 42.3654 49.2785L43.2576 48.3943L43.2581 48.3938C44.2326 47.4266 44.2334 45.8521 43.2577 44.885C43.2576 44.885 43.2576 44.8849 43.2575 44.8849L33.7968 35.5056L43.269 26.115L43.2692 26.1147C43.7385 25.6491 44 25.023 44 24.3606C44 23.6979 43.7386 23.0719 43.2695 22.6061L43.2688 22.6054L42.3764 21.7212C42.3764 21.7211 42.3763 21.7211 42.3763 21.721C41.9066 21.2554 41.2788 21 40.6189 21C39.9591 21 39.3308 21.2554 38.8611 21.7215L26.7304 33.7473L26.7298 33.7478C26.2594 34.2149 25.9991 34.843 26 35.5049ZM26 35.5049C26 35.5042 26 35.5035 26 35.5027L27 35.5049L26 35.5072C26 35.5064 26 35.5057 26 35.5049Z" stroke="black" stroke-opacity="0.14" stroke-width="2"/>
</svg>

<svg xmlns="http://www.w3.org/2000/svg" fill="none" viewBox="0 0 71 71"><circle cx="35.5" cy="35.5" r="35.5" fill="#000" fill-opacity=".35" transform="rotate(-180 35.5 35.5)"/><path fill="#fff" d="M27.434 36.553l12.12 12.016c.28.278.655.431 1.054.431s.773-.153 1.053-.431l.893-.885a1.47 1.47 0 0 0 0-2.089l-10.178-10.09 10.189-10.1A1.46 1.46 0 0 0 43 24.36c0-.396-.155-.767-.435-1.045l-.893-.885A1.486 1.486 0 0 0 40.62 22c-.4 0-.773.153-1.054.431l-12.13 12.026A1.462 1.462 0 0 0 27 35.505c0 .398.153.77.434 1.048z"/><path stroke="#000" stroke-opacity=".14" stroke-width="2" d="M26 35.505c0 .663.26 1.291.73 1.758h0L38.85 49.28s0 0 0 0c.47.466 1.098.721 1.758.721.66 0 1.287-.255 1.757-.721 0 0 0 0 0 0s0 0 0 0l.893-.885h0a2.47 2.47 0 0 0 0-3.509s0 0 0 0l-9.461-9.38 9.472-9.39h0A2.46 2.46 0 0 0 44 24.36c0-.663-.261-1.29-.73-1.755h-.001l-.893-.885s0 0 0 0A2.486 2.486 0 0 0 40.62 21c-.66 0-1.288.255-1.758.721l-12.13 12.026h-.001a2.462 2.462 0 0 0-.73 1.758zm0 0v-.002l1 .002-1 .002v-.002z"/></svg>
